X:1
T:Title
%%score { ( 1 3 ) | ( 2 4 ) }
L:1/8
M:6/8
K:D
V:1 treble nm="Grand Piano"
V:3 treble 
V:2 bass 
V:4 bass 
V:1
 z3 z2[Q:1/4=90] [FA] | z3 z2 [GB] | A2 D G2 F | F2 E [CA]2 [CG] | G3 F2 [A,FA] | z3 z2 [GB] | %6
 A2 D G2 F | F2 E [CF]2 [CE] |[M:5/8] D-D- D3 |[M:1/8] A |[M:3/4] A6 | A2 A A2 [DFA] | A6 | %13
 [DFA]2 [EGA] [FA]2 [A,FA] | z2 z2 z [GB] | A2 D G2 F | F2 E [CF]2 [CE] |[M:5/8] D-D- D3 |] %18
V:2
 z3 z2 [D,A,] | [D,A,]2 [D,A,] [E,A,]2 .[E,B,] | [F,DF]2 [F,=C] [G,B,D]2 [B,D] | %3
 [A,D]2 [A,C] [A,,A,]2 [A,,A,] | B,3 z3 | [D,A,]2 [D,A,] [E,A,]2 .[E,B,] | %6
 [F,DF]2 [F,=C] [G,B,D]2 [B,D] | [A,D]2 [A,C] [A,,G,]2 [A,,G,] |[M:5/8] [D,F,]-[D,F,]- [D,F,]3 | %9
[M:1/8] [F,D] |[M:3/4] [E,C]2 F, G,2 [E,C] | [F,D]2[K:treble] [G,E] [A,F]2[K:bass] A,, | %12
 A,,2 A,, A,,2 G, | F,2 E, D,2 D, | [D,A,]2 [D,A,] [E,A,]2 .[E,B,] | %15
 [F,DF]2 [F,=C] [G,B,D]2 [B,D] | [A,D]2 [A,C] [A,,A,]2 [A,,G,] |[M:5/8] [D,F,]-[D,F,]- [D,F,]3 |] %18
V:3
 x6 | [Fd]2 [Fd] [Ec]2 z/ C/ | x6 | x6 | x6 | [Fd]2 [Fd] [Ec]2 z/ C/ | x6 | x6 |[M:5/8] x5 | %9
[M:1/8] x |[M:3/4] z2 D E2 A | x6 | [CE]2 [DF] [EG]2 [CEA] | x6 | [Fd]2 [Fd] [Ec]2 z/ C/ | x6 | %16
 x6 |[M:5/8] x5 |] %18
V:4
 x6 | x6 | x6 | x6 | [D,D]3- [D,A,D]2 D, | x6 | x6 | x6 |[M:5/8] x5 |[M:1/8] x |[M:3/4] x6 | %11
 x2[K:treble] x3[K:bass] x | x6 | x6 | x6 | x6 | x6 |[M:5/8] x5 |] %18

